X:1
T:Martha, 77.77 D
T:Martha, 77.77 D
T:John Beck Hammer, 1871
T:Public Domain Courtesy of the Cyber Hymnal™
C:John Beck Hammer, 1871
Z:Public Domain
Z:Courtesy of the Cyber Hymnal™
%%score ( 1 2 ) ( 3 4 )
L:1/8
Q:1/4=150
M:4/4
K:F
V:1 treble 
V:2 treble 
V:3 bass 
V:4 bass 
V:1
 [FA]6 F2 | [FB]4 [FA]4 | [EA]6 [EG]2 | F6 z2 | [Fd]6 [Fd]2 | [Fc]4 [FA]4 | G6 z2 A2 | [EG]6 ^G2 | %8
 [FA]6 F2 | [FB]4 [FA]4 | [EA]6 [EG]2 | [DF]6 z2 | [Fd]4 (e2 d2) | (c2 A2) (F2 B2) | %14
 [FA]6 [EG]2 x2 | !fermata![CF]6 z2 | [EG]4 [FG]4 | [EG]6 [EG]2 | [FA]4 [F=B]4 | [Ec]6 z2 | %20
 [Ec]4 [EG]4 | [F=B]6 [FA]2 | [EG]4 [Fd]4 | ([Ec]4 [GB]4) | [FA]6 F2 | [FB]4 [FA]4 | [EA]6 [EG]2 | %27
 [DF]6 z2 | [Fd]4 (e2 d2) | (c2 A2) (F2 B2) | [FA]6 [EG]2 x2 | [CF]6 z2 |] %32
V:2
 x6 F2 | x8 | x8 | F6 x2 | x8 | x8 | F4 F4 x2 | x8 | x6 F2 | x8 | x8 | x8 | x4 F4 | F4 F4 | x10 | %15
 x8 | x8 | x8 | x8 | x8 | x8 | x8 | x8 | x8 | x6 F2 | x8 | x8 | x8 | x4 F4 | F4 F4 | x10 | x8 |] %32
V:3
 [F,C]6 [F,A,]2 | (D2 _D2) [F,C]4 | [C,C]6 [C,B,]2 | [F,A,]6 z2 | [B,,B,]6 [B,,B,]2 | %5
 [F,A,]4 [F,C]4 | [D,=B,]4 [G,,B,]4 x2 | [C,C]6 z2 | [F,C]6 [F,A,]2 | (D2 _D2) [F,C]4 | %10
 [A,,^C]6 [^C,A,]2 | [D,A,]6 z2 | [=B,,_A,]4 [B,,A,]4 | [C,A,]4 ([D,A,]2 [B,,D]2) | C6 z2 B,2 | %15
 !fermata![F,,F,A,]6 z2 | [C,C]4 [=B,,D]4 | [C,C]6 [C,C]2 | [F,C]4 [D,G,]4 | [C,G,]6 z2 | %20
 [C,G,]4 [C,C]4 | [F,C]6 [F,C]2 | [G,C]4 [G,,=B,]4 | C8 | [F,C]6 [F,A,]2 | (D2 _C2) [F,C]4 | %26
 [A,,^C]6 [^C,A,]2 | [D,A,]6 z2 | [=B,,_A,]4 [B,,A,]4 | [C,A,]4 ([D,A,]2 [B,,D]2) | C6 z2 B,2 | %31
 [F,,F,A,]6 z2 |] %32
V:4
 x8 | F,4 x4 | x8 | x8 | x8 | x8 | x10 | x8 | x8 | F,4 x4 | x8 | x8 | x8 | x8 | C,4 C,4 x2 | x8 | %16
 x8 | x8 | x8 | x8 | x8 | x8 | x8 | (C,4 E,4) | x8 | F,4 x4 | x8 | x8 | x8 | x8 | C,4 C,4 x2 | %31
 x8 |] %32

